;FLAVOR:Marlin
;TIME:25639
;Filament used: 0m, 25.7804m
;Layer height: 0.2
;MINX:8.91
;MINY:17.8
;MINZ:0.3
;MAXX:211.09
;MAXY:202.2
;MAXZ:5.9
;Generated with Cura_SteamEngine 4.4.1
T1
M140 S65
M105
M190 S65
M104 S190
M105
M109 S190
M82 ;absolute extrusion mode
G28
G1 Z15 F300
M107
G90
M82
G92 E0
M107
M164 S4
G0 X10 Y20 F6000
G1 Z0.8
G1 F300 X200 E40
G1 F1200 Z2
G92 E0
G28
G92 E0
G92 E0
G1 F4200 E-8
;LAYER_COUNT:29
;LAYER:0
M107
G1 F600 Z1.3
G0 F1200 X16.881 Y22.43 Z1.3
;TYPE:SKIRT
G1 F600 Z0.3
G1 F4200 E0
G1 F600 X17.705 Y21.806 E0.07735
G1 X17.744 Y21.777 E0.08099
G1 X18.353 Y21.33 E0.13752
G1 X18.665 Y21.127 E0.16538
G1 X19.302 Y20.762 E0.22032
G1 X19.347 Y20.737 E0.22417
G1 X20.326 Y20.196 E0.30788
G1 X20.365 Y20.174 E0.31123
G1 X20.952 Y19.86 E0.36105
G1 X21.294 Y19.702 E0.38924
G1 X22.029 Y19.411 E0.4484
G1 X22.073 Y19.394 E0.45193
G1 X23.04 Y19.027 E0.52933
G1 X23.088 Y19.009 E0.53317
G1 X23.768 Y18.763 E0.58728
G1 X24.121 Y18.657 E0.61486
G1 X24.821 Y18.489 E0.66874
G1 X24.874 Y18.477 E0.6728
G1 X25.983 Y18.23 E0.75783
G1 X26.021 Y18.222 E0.76073
G1 X26.668 Y18.086 E0.81021
G1 X27.047 Y18.029 E0.83889
G1 X27.824 Y17.958 E0.89728
G1 X27.87 Y17.954 E0.90074
G1 X28.958 Y17.87 E0.9824
G1 X29.009 Y17.866 E0.98623
G1 X29.69 Y17.824 E1.03729
G1 X29.782 Y17.82 E1.04418
G1 X29.99 Y17.813 E1.05975
G1 X30.067 Y17.811 E1.06552
G1 X30.361 Y17.808 E1.08752
G1 X30.395 Y17.808 E1.09007
G1 X184.103 Y17.8 E12.59285
G1 X189.35 Y17.8 E12.98551
G1 X190.056 Y17.81 E13.03835
G1 X190.149 Y17.813 E13.04531
G1 X190.502 Y17.828 E13.07175
G1 X190.596 Y17.833 E13.0788
G1 X192.015 Y17.934 E13.18526
G1 X192.061 Y17.938 E13.18871
G1 X192.708 Y17.993 E13.23731
G1 X193.052 Y18.041 E13.2633
G1 X193.654 Y18.157 E13.30918
G1 X193.712 Y18.168 E13.3136
G1 X194.9 Y18.419 E13.40446
G1 X194.948 Y18.43 E13.40815
G1 X195.653 Y18.59 E13.46225
G1 X196.019 Y18.695 E13.49074
G1 X196.678 Y18.927 E13.54303
G1 X196.718 Y18.942 E13.54622
G1 X197.809 Y19.342 E13.63318
G1 X197.855 Y19.359 E13.63685
G1 X198.473 Y19.596 E13.68639
G1 X198.814 Y19.75 E13.71439
G1 X199.477 Y20.095 E13.77032
G1 X199.519 Y20.117 E13.77387
G1 X200.518 Y20.655 E13.85878
G1 X200.565 Y20.681 E13.8628
G1 X201.133 Y20.999 E13.91151
G1 X201.442 Y21.194 E13.93886
G1 X202.068 Y21.642 E13.99646
G1 X202.113 Y21.675 E14.00064
G1 X202.984 Y22.321 E14.08179
G1 X203.02 Y22.349 E14.08521
G1 X203.561 Y22.762 E14.13614
G1 X203.841 Y23.001 E14.16369
G1 X204.357 Y23.495 E14.21715
G1 X204.397 Y23.534 E14.22133
G1 X205.187 Y24.316 E14.30452
G1 X205.217 Y24.346 E14.30769
G1 X205.717 Y24.854 E14.36103
G1 X205.966 Y25.138 E14.3893
G1 X206.43 Y25.732 E14.4457
G1 X206.46 Y25.771 E14.44939
G1 X207.084 Y26.595 E14.52674
G1 X207.11 Y26.63 E14.53
G1 X207.554 Y27.233 E14.58604
G1 X207.761 Y27.551 E14.61443
G1 X208.129 Y28.194 E14.66988
G1 X208.153 Y28.237 E14.67356
G1 X208.694 Y29.216 E14.75727
G1 X208.716 Y29.255 E14.76062
G1 X209.03 Y29.842 E14.81044
G1 X209.188 Y30.184 E14.83863
G1 X209.479 Y30.919 E14.89779
G1 X209.496 Y30.963 E14.90132
G1 X209.863 Y31.93 E14.97872
G1 X209.881 Y31.978 E14.98256
G1 X210.127 Y32.658 E15.03667
G1 X210.233 Y33.011 E15.06425
G1 X210.401 Y33.711 E15.11813
G1 X210.413 Y33.764 E15.12219
G1 X210.659 Y34.869 E15.20691
G1 X210.667 Y34.906 E15.20974
G1 X210.804 Y35.557 E15.25953
G1 X210.861 Y35.937 E15.28828
G1 X210.932 Y36.714 E15.34667
G1 X210.936 Y36.76 E15.35013
G1 X211.02 Y37.848 E15.43179
G1 X211.024 Y37.898 E15.43555
G1 X211.066 Y38.577 E15.48646
G1 X211.07 Y38.671 E15.4935
G1 X211.077 Y38.881 E15.50922
G1 X211.079 Y38.957 E15.51491
G1 X211.082 Y39.251 E15.53691
G1 X211.082 Y39.285 E15.53946
G1 X211.09 Y192.988 E27.04187
G1 X211.09 Y198.205 E27.43228
G1 X211.081 Y198.932 E27.48669
G1 X211.034 Y199.443 E27.5251
G1 X210.909 Y199.941 E27.56352
G1 X210.709 Y200.414 E27.60195
G1 X210.437 Y200.849 E27.64034
G1 X210.101 Y201.238 E27.67881
G1 X209.709 Y201.569 E27.71721
G1 X209.27 Y201.836 E27.75566
G1 X208.796 Y202.031 E27.79401
G1 X208.296 Y202.151 E27.83249
G1 X207.873 Y202.19 E27.86428
G1 X207.552 Y202.199 E27.88832
G1 X207.46 Y202.2 E27.8952
G1 X161.46 Y202.2 E31.33762
G1 X160.762 Y202.19 E31.38986
G1 X160.25 Y202.142 E31.42835
G1 X159.753 Y202.016 E31.46672
G1 X159.169 Y201.754 E31.51462
G1 X158.31 Y201.262 E31.5887
G1 X155.892 Y199.913 E31.79591
G1 X153.508 Y198.671 E31.99707
G1 X151.02 Y197.461 E32.20412
G1 X148.525 Y196.336 E32.40893
G1 X146.012 Y195.285 E32.61278
G1 X143.435 Y194.292 E32.81945
G1 X140.884 Y193.394 E33.02184
G1 X138.278 Y192.557 E33.22667
G1 X135.656 Y191.795 E33.43101
G1 X132.992 Y191.102 E33.637
G1 X130.322 Y190.488 E33.84203
G1 X127.639 Y189.949 E34.04682
G1 X124.959 Y189.492 E34.25028
G1 X122.257 Y189.108 E34.45452
G1 X119.534 Y188.8 E34.65959
G1 X116.82 Y188.569 E34.86343
G1 X114.08 Y188.415 E35.0688
G1 X111.334 Y188.338 E35.27438
G1 X108.622 Y188.338 E35.47733
G1 X105.873 Y188.417 E35.68314
G1 X103.134 Y188.572 E35.88844
G1 X100.426 Y188.804 E36.09184
G1 X97.7 Y189.114 E36.29715
G1 X95.01 Y189.497 E36.50049
G1 X92.262 Y189.968 E36.70914
G1 X89.668 Y190.489 E36.90714
G1 X86.931 Y191.12 E37.11733
G1 X84.324 Y191.799 E37.31894
G1 X81.665 Y192.572 E37.52616
G1 X79.079 Y193.404 E37.72946
G1 X76.502 Y194.315 E37.934
G1 X73.962 Y195.294 E38.13772
G1 X71.441 Y196.347 E38.34217
G1 X68.929 Y197.483 E38.54849
G1 X66.48 Y198.674 E38.75228
G1 X64.026 Y199.955 E38.95944
G1 X61.638 Y201.288 E39.16411
G1 X60.859 Y201.741 E39.23154
G1 X60.397 Y201.964 E39.26993
G1 X59.905 Y202.112 E39.30838
G1 X59.321 Y202.186 E39.35244
G1 X58.99 Y202.198 E39.37722
G1 X58.87 Y202.2 E39.3862
G1 X12.874 Y202.2 E42.82833
G1 X12.176 Y202.191 E42.88057
G1 X11.665 Y202.144 E42.91897
G1 X11.167 Y202.019 E42.95739
G1 X10.695 Y201.818 E42.99579
G1 X10.259 Y201.546 E43.03424
G1 X9.871 Y201.21 E43.07265
G1 X9.54 Y200.818 E43.11105
G1 X9.273 Y200.379 E43.1495
G1 X9.078 Y199.904 E43.18793
G1 X8.959 Y199.405 E43.22632
G1 X8.92 Y198.98 E43.25825
G1 X8.911 Y198.647 E43.28318
G1 X8.91 Y198.558 E43.28984
G1 X8.91 Y39.53 E55.19075
G1 X8.92 Y38.834 E55.24284
G1 X8.923 Y38.741 E55.24981
G1 X8.938 Y38.388 E55.27625
G1 X8.943 Y38.294 E55.28329
G1 X9.044 Y36.875 E55.38975
G1 X9.048 Y36.829 E55.39321
G1 X9.103 Y36.182 E55.4418
G1 X9.151 Y35.838 E55.46779
G1 X9.267 Y35.236 E55.51367
G1 X9.278 Y35.178 E55.51809
G1 X9.529 Y33.99 E55.60896
G1 X9.54 Y33.94 E55.61279
G1 X9.701 Y33.232 E55.66712
G1 X9.806 Y32.868 E55.69548
G1 X10.037 Y32.212 E55.74752
G1 X10.052 Y32.172 E55.75072
G1 X10.452 Y31.081 E55.83768
G1 X10.469 Y31.035 E55.84135
G1 X10.706 Y30.417 E55.89088
G1 X10.861 Y30.074 E55.91905
G1 X11.216 Y29.393 E55.97652
G1 X11.236 Y29.354 E55.9798
G1 X11.764 Y28.373 E56.06317
G1 X11.79 Y28.326 E56.06719
G1 X12.106 Y27.761 E56.11564
G1 X12.302 Y27.452 E56.14302
G1 X12.752 Y26.823 E56.2009
G1 X12.785 Y26.777 E56.20514
G1 X13.431 Y25.906 E56.28629
G1 X13.458 Y25.871 E56.2896
G1 X13.878 Y25.32 E56.34144
G1 X14.124 Y25.033 E56.36973
G1 X14.611 Y24.527 E56.42229
G1 X14.644 Y24.493 E56.42583
G1 X15.426 Y23.703 E56.50902
G1 X15.458 Y23.671 E56.51241
G1 X15.969 Y23.169 E56.56601
G1 X16.25 Y22.923 E56.59396
G1 X16.841 Y22.461 E56.6501
G1 X16.881 Y22.43 E56.65389
G1 F4200 E48.65389
G1 F600 Z1.3
;MESH:top.stl
G0 F1200 X15.469 Y63.488 Z1.3
;TYPE:WALL-INNER
G1 F600 Z0.3
G1 F4200 E56.65389
G1 F600 X15.371 Y64.25 E56.71138
G1 X15.455 Y65.014 E56.7689
G1 X15.721 Y65.736 E56.82648
G1 X16.152 Y66.373 E56.88404
G1 X16.723 Y66.888 E56.94158
G1 X17.401 Y67.252 E56.99917
G1 X18.146 Y67.442 E57.0567
G1 X18.914 Y67.45 E57.11418
G1 X19.664 Y67.274 E57.17183
G1 X20.348 Y66.921 E57.22943
G1 X20.928 Y66.417 E57.28694
G1 X21.369 Y65.789 E57.34436
G1 X21.651 Y65.072 E57.40202
G1 X21.749 Y64.31 E57.45952
G1 X21.665 Y63.546 E57.51703
G1 X21.399 Y62.824 E57.57462
G1 X20.968 Y62.187 E57.63217
G1 X20.397 Y61.672 E57.68972
G1 X19.719 Y61.308 E57.7473
G1 X18.974 Y61.118 E57.80484
G1 X18.206 Y61.11 E57.86232
G1 X17.456 Y61.286 E57.91997
G1 X16.772 Y61.639 E57.97757
G1 X16.192 Y62.143 E58.03507
G1 X15.751 Y62.771 E58.0925
G1 X15.469 Y63.488 E58.15016
G0 F1200 X16.312 Y62.252
G0 X17.512 Y61.438
G0 X71.406 Y62.997
G1 F600 X71.837 Y63.635 E58.20778
G1 X72.406 Y64.152 E58.26531
G1 X73.082 Y64.516 E58.32277
G1 X73.827 Y64.711 E58.3804
G1 X74.595 Y64.72 E58.43787
G1 X75.344 Y64.546 E58.49542
G1 X76.029 Y64.198 E58.55292
G1 X76.612 Y63.693 E58.61064
G1 X77.056 Y63.065 E58.66819
G1 X77.336 Y62.35 E58.72566
G1 X77.437 Y61.589 E58.78311
G1 X77.356 Y60.826 E58.84053
G1 X77.093 Y60.102 E58.89817
G1 X76.662 Y59.464 E58.95579
G1 X76.093 Y58.947 E59.01332
G1 X75.417 Y58.583 E59.07078
G1 X74.672 Y58.388 E59.12841
G1 X73.904 Y58.379 E59.18589
G1 X73.155 Y58.553 E59.24343
G1 X72.47 Y58.901 E59.30093
G1 X71.887 Y59.406 E59.35865
G1 X71.443 Y60.034 E59.41621
G1 X71.163 Y60.749 E59.47367
G1 X71.062 Y61.509 E59.53105
G1 X71.143 Y62.273 E59.58854
G1 X71.406 Y62.997 E59.64618
G0 F1200 X72.5 Y64.019
G0 X82.031 Y67.37
G1 F600 X82.267 Y67.606 E59.67116
G1 X109.788 Y95.128 E62.58385
G1 X110 Y95.34 E62.60628
G1 X110.212 Y95.128 E62.62077
G1 X137.734 Y67.606 E65.5335
G1 X137.969 Y67.371 E65.55838
G1 X137.71 Y67.162 E65.57402
G1 X134.25 Y64.366 E65.90692
G1 X130.946 Y62.171 E66.20377
G1 X127.441 Y60.306 E66.50089
G1 X123.772 Y58.789 E66.798
G1 X119.973 Y57.636 E67.09511
G1 X116.082 Y56.857 E67.39207
G1 X112.132 Y56.457 E67.68918
G1 X108.163 Y56.442 E67.9862
G1 X104.211 Y56.812 E68.28325
G1 X100.313 Y57.563 E68.58032
G1 X96.506 Y58.69 E68.87744
G1 X92.827 Y60.18 E69.17448
G1 X89.309 Y62.02 E69.47159
G1 X85.987 Y64.192 E69.76861
G1 X82.291 Y67.161 E70.12339
G1 X82.031 Y67.37 E70.13906
G0 F1200 X65.144 Y26.88
G0 X64.999 Y25.388
G1 F600 X64.901 Y26.15 E70.19655
G1 X64.985 Y26.914 E70.25407
G1 X65.251 Y27.636 E70.31165
G1 X65.682 Y28.273 E70.36921
G1 X66.253 Y28.788 E70.42675
G1 X66.931 Y29.152 E70.48434
G1 X67.676 Y29.342 E70.54188
G1 X68.444 Y29.35 E70.59936
G1 X69.194 Y29.174 E70.65701
G1 X69.878 Y28.821 E70.71461
G1 X70.458 Y28.317 E70.77211
G1 X70.899 Y27.689 E70.82954
G1 X71.181 Y26.972 E70.8872
G1 X71.279 Y26.21 E70.94469
G1 X71.195 Y25.446 E71.00221
G1 X70.929 Y24.724 E71.05979
G1 X70.498 Y24.087 E71.11735
G1 X69.927 Y23.572 E71.17489
G1 X69.249 Y23.208 E71.23248
G1 X68.504 Y23.018 E71.29002
G1 X67.736 Y23.01 E71.34749
G1 X66.986 Y23.186 E71.40514
G1 X66.302 Y23.539 E71.46274
G1 X65.722 Y24.043 E71.52025
G1 X65.281 Y24.671 E71.57767
G1 X64.999 Y25.388 E71.63533
G0 F1200 X65.842 Y24.152
G0 X67.042 Y23.338
G0 X148.819 Y25.388
G1 F600 X148.721 Y26.15 E71.69283
G1 X148.805 Y26.914 E71.75034
G1 X149.071 Y27.636 E71.80793
G1 X149.502 Y28.273 E71.86548
G1 X150.073 Y28.788 E71.92303
G1 X150.751 Y29.152 E71.98061
G1 X151.496 Y29.342 E72.03815
G1 X152.264 Y29.35 E72.09563
G1 X153.014 Y29.174 E72.15328
G1 X153.698 Y28.821 E72.21088
G1 X154.278 Y28.317 E72.26838
G1 X154.719 Y27.689 E72.32581
G1 X155.001 Y26.972 E72.38347
G1 X155.099 Y26.21 E72.44096
G1 X155.015 Y25.446 E72.49848
G1 X154.749 Y24.724 E72.55606
G1 X154.318 Y24.087 E72.61362
G1 X153.747 Y23.572 E72.67116
G1 X153.069 Y23.208 E72.72875
G1 X152.324 Y23.018 E72.78629
G1 X151.556 Y23.01 E72.84376
G1 X150.806 Y23.186 E72.90142
G1 X150.122 Y23.539 E72.95902
G1 X149.542 Y24.043 E73.01652
G1 X149.101 Y24.671 E73.07395
G1 X148.819 Y25.388 E73.1316
G0 F1200 X142.726 Y61.513
G0 X142.907 Y62.997
G1 F600 X143.338 Y63.635 E73.18922
G1 X143.907 Y64.152 E73.24676
G1 X144.583 Y64.516 E73.30421
G1 X145.328 Y64.711 E73.36184
G1 X146.096 Y64.72 E73.41932
G1 X146.845 Y64.546 E73.47686
G1 X147.53 Y64.198 E73.53436
G1 X148.113 Y63.693 E73.59208
G1 X148.557 Y63.065 E73.64964
G1 X148.837 Y62.35 E73.7071
G1 X148.938 Y61.589 E73.76455
G1 X148.857 Y60.826 E73.82197
G1 X148.594 Y60.102 E73.87962
G1 X148.163 Y59.464 E73.93724
G1 X147.594 Y58.947 E73.99477
G1 X146.918 Y58.583 E74.05223
G1 X146.173 Y58.388 E74.10986
G1 X145.405 Y58.379 E74.16733
G1 X144.656 Y58.553 E74.22488
G1 X143.971 Y58.901 E74.28238
G1 X143.388 Y59.406 E74.3401
G1 X142.944 Y60.034 E74.39765
G1 X142.664 Y60.749 E74.45512
G1 X142.563 Y61.509 E74.51249
G1 X142.644 Y62.273 E74.56999
G1 X142.907 Y62.997 E74.62763
G0 F1200 X139.93 Y69.331
G1 F600 X139.694 Y69.567 E74.65261
G1 X112.172 Y97.088 E77.56529
G1 X111.96 Y97.3 E77.58773
G1 X112.172 Y97.512 E77.60221
G1 X139.694 Y125.034 E80.51495
G1 X139.929 Y125.269 E80.53982
G1 X140.138 Y125.01 E80.55546
G1 X142.934 Y121.55 E80.88837
G1 X145.129 Y118.246 E81.18522
G1 X146.994 Y114.741 E81.48233
G1 X148.511 Y111.072 E81.77945
G1 X149.664 Y107.273 E82.07655
G1 X150.443 Y103.382 E82.37352
G1 X150.843 Y99.432 E82.67063
G1 X150.858 Y95.463 E82.96765
G1 X150.488 Y91.511 E83.26469
G1 X149.737 Y87.613 E83.56177
G1 X148.61 Y83.806 E83.85889
G1 X147.12 Y80.127 E84.15593
G1 X145.28 Y76.609 E84.45303
G1 X143.108 Y73.287 E84.75006
G1 X140.139 Y69.591 E85.10484
G1 X139.93 Y69.331 E85.12051
G0 F1200 X142.979 Y73.383
G0 X145.146 Y76.698
G0 X146.971 Y80.188
G0 X148.456 Y83.856
G0 X149.581 Y87.655
G0 X150.329 Y91.54
G0 X150.697 Y95.468
G0 X150.682 Y99.423
G0 X150.284 Y103.359
G0 X149.508 Y107.23
G0 X148.36 Y111.015
G0 X146.847 Y114.676
G0 X144.99 Y118.166
G0 X142.804 Y121.454
G0 X140.465 Y124.334
G0 X137.969 Y127.23
G1 F600 X137.733 Y126.994 E85.14548
G1 X110 Y99.26 E88.0806
G1 X82.266 Y126.994 E91.01578
G1 X82.031 Y127.229 E91.04065
G1 X82.29 Y127.438 E91.05629
G1 X85.75 Y130.234 E91.3892
G1 X89.054 Y132.429 E91.68604
G1 X92.559 Y134.294 E91.98316
G1 X96.228 Y135.811 E92.28028
G1 X100.027 Y136.964 E92.57738
G1 X103.918 Y137.743 E92.87434
G1 X107.868 Y138.143 E93.17146
G1 X111.837 Y138.158 E93.46848
G1 X115.789 Y137.788 E93.76552
G1 X119.687 Y137.037 E94.06259
G1 X123.494 Y135.91 E94.35971
G1 X127.173 Y134.42 E94.65676
G1 X130.691 Y132.58 E94.95386
G1 X134.013 Y130.408 E95.25089
G1 X137.709 Y127.439 E95.60567
G1 X137.969 Y127.23 E95.62133
G0 F1200 X142.907 Y134.498
G1 F600 X143.338 Y135.136 E95.67895
G1 X143.907 Y135.653 E95.73649
G1 X144.583 Y136.017 E95.79394
G1 X145.328 Y136.212 E95.85157
G1 X146.096 Y136.221 E95.90905
G1 X146.845 Y136.047 E95.96659
G1 X147.53 Y135.699 E96.02409
G1 X148.113 Y135.194 E96.08181
G1 X148.557 Y134.566 E96.13937
G1 X148.837 Y133.851 E96.19683
G1 X148.938 Y133.09 E96.25428
G1 X148.857 Y132.327 E96.3117
G1 X148.594 Y131.603 E96.36935
G1 X148.163 Y130.965 E96.42697
G1 X147.594 Y130.448 E96.4845
G1 X146.918 Y130.084 E96.54196
G1 X146.173 Y129.889 E96.59959
G1 X145.405 Y129.88 E96.65706
G1 X144.656 Y130.054 E96.71461
G1 X143.971 Y130.402 E96.77211
G1 X143.388 Y130.907 E96.82983
G1 X142.944 Y131.535 E96.88738
G1 X142.664 Y132.25 E96.94485
G1 X142.563 Y133.01 E97.00222
G1 X142.644 Y133.774 E97.05972
G1 X142.907 Y134.498 E97.11736
G0 F1200 X157.984 Y148.164
G0 X159.144 Y148.307
G0 X160.126 Y148.986
G0 X161.7 Y152.28
G1 F600 X160.753 Y152.28 E97.18823
G1 X160.613 Y152.28 E97.19871
G1 X160.332 Y152.28 E97.21974
G1 X160.613 Y151.874 E97.2395
G1 X160.662 Y151.743 E97.24858
G1 X160.839 Y151.275 E97.28602
G1 X160.916 Y150.64 E97.33389
G1 X160.839 Y150.005 E97.38176
G1 X160.613 Y149.406 E97.42967
G1 X160.248 Y148.879 E97.47764
G1 X159.77 Y148.454 E97.52551
G1 X159.202 Y148.156 E97.57351
G1 X158.58 Y148.003 E97.62144
G1 X157.967 Y148.003 E97.66732
G1 X157.322 Y148.154 E97.71689
G1 X157.094 Y148.274 E97.73617
G1 X156.75 Y148.454 E97.76523
G1 X156.62 Y148.57 E97.77827
G1 X156.62 Y148.454
G1 X156.62 Y148.066 E97.79757
G1 X156.62 Y147.2 E97.86238
G1 X63.38 Y147.2 E104.84002
G1 X63.38 Y148.066 E104.90483
G1 X63.38 Y148.454 E104.93387
G1 X63.38 Y148.57 E104.94255
G1 X63.25 Y148.454 E104.94673
G1 X62.907 Y148.274 E104.96599
G1 X62.682 Y148.156 E104.98501
G1 X62.06 Y148.003 E105.03294
