;FLAVOR:Marlin
;TIME:32819
;Filament used: 1.05365m, 36.3106m
;Layer height: 0.2
;MINX:8.57
;MINY:13.46
;MINZ:0.3
;MAXX:211.43
;MAXY:218.616
;MAXZ:6.3
;Generated with Cura_SteamEngine 4.4.1
T1
M140 S65
M105
M190 S65
M104 T0 S200
M104 S195
M105
M109 T0 S200
M105
M109 S195
M82 ;absolute extrusion mode
G28
G1 Z15 F300
M107
G90
M82
G92 E0
M107
M164 S4
G0 X10 Y20 F6000
G1 Z0.8
G1 F300 X200 E40
G1 F1200 Z2
G92 E0
G28
G92 E0
G92 E0
G1 F4200 E-8
;LAYER_COUNT:29
;LAYER:0
M107
G1 F600 Z1.3
G0 F6000 X16.299 Y18.986 Z1.3
;TYPE:SKIRT
G1 F600 Z0.3
G1 F4200 E0
G1 F900 X16.89 Y18.524 E0.04117
G1 X16.929 Y18.494 E0.04387
G1 X17.753 Y17.87 E0.10059
G1 X17.792 Y17.841 E0.10326
G1 X18.401 Y17.394 E0.14472
G1 X18.705 Y17.196 E0.16463
G1 X19.342 Y16.831 E0.20492
G1 X19.386 Y16.807 E0.20767
G1 X20.365 Y16.266 E0.26905
G1 X20.403 Y16.245 E0.27143
G1 X20.99 Y15.931 E0.30797
G1 X21.324 Y15.776 E0.32818
G1 X22.059 Y15.485 E0.37156
G1 X22.101 Y15.469 E0.37402
G1 X23.068 Y15.102 E0.43079
G1 X23.116 Y15.084 E0.4336
G1 X23.796 Y14.838 E0.47328
G1 X24.14 Y14.735 E0.49299
G1 X24.84 Y14.567 E0.5325
G1 X24.891 Y14.555 E0.53537
G1 X26 Y14.308 E0.59772
G1 X26.038 Y14.3 E0.59986
G1 X26.685 Y14.164 E0.63614
G1 X27.054 Y14.108 E0.65662
G1 X27.831 Y14.037 E0.69944
G1 X27.876 Y14.034 E0.70191
G1 X28.964 Y13.95 E0.7618
G1 X29.014 Y13.946 E0.76455
G1 X29.695 Y13.904 E0.802
G1 X29.785 Y13.9 E0.80694
G1 X29.993 Y13.893 E0.81836
G1 X30.068 Y13.891 E0.82248
G1 X30.362 Y13.888 E0.83862
G1 X30.395 Y13.888 E0.84043
G1 X184.103 Y13.88 E9.2758
G1 X189.349 Y13.88 E9.5637
G1 X190.055 Y13.89 E9.60245
G1 X190.146 Y13.893 E9.60744
G1 X190.499 Y13.908 E9.62683
G1 X190.591 Y13.913 E9.63189
G1 X192.01 Y14.014 E9.70996
G1 X192.054 Y14.018 E9.71239
G1 X192.701 Y14.073 E9.74802
G1 X193.037 Y14.119 E9.76663
G1 X193.639 Y14.235 E9.80028
G1 X193.696 Y14.247 E9.80347
G1 X194.884 Y14.498 E9.87011
G1 X194.931 Y14.508 E9.87275
G1 X195.636 Y14.668 E9.91242
G1 X195.992 Y14.771 E9.93276
G1 X196.651 Y15.003 E9.9711
G1 X196.69 Y15.017 E9.97337
G1 X197.781 Y15.417 E10.03714
G1 X197.826 Y15.434 E10.03978
G1 X198.444 Y15.671 E10.07611
G1 X198.777 Y15.821 E10.09615
G1 X199.44 Y16.166 E10.13717
G1 X199.481 Y16.187 E10.1397
G1 X200.48 Y16.725 E10.20196
G1 X200.526 Y16.75 E10.20484
G1 X201.094 Y17.068 E10.24056
G1 X201.395 Y17.259 E10.26013
G1 X202.021 Y17.707 E10.30237
G1 X202.065 Y17.74 E10.30539
G1 X202.936 Y18.386 E10.3649
G1 X202.972 Y18.413 E10.36737
G1 X203.513 Y18.826 E10.40472
G1 X203.786 Y19.059 E10.42442
G1 X204.302 Y19.553 E10.46362
G1 X204.34 Y19.591 E10.46657
G1 X205.13 Y20.373 E10.52757
G1 X205.16 Y20.402 E10.52986
G1 X205.66 Y20.91 E10.56898
G1 X205.903 Y21.187 E10.5892
G1 X206.367 Y21.781 E10.63057
G1 X206.396 Y21.819 E10.63319
G1 X207.02 Y22.643 E10.68992
G1 X207.046 Y22.678 E10.69231
G1 X207.49 Y23.281 E10.7334
G1 X207.692 Y23.591 E10.75371
G1 X208.06 Y24.234 E10.79437
G1 X208.083 Y24.276 E10.79699
G1 X208.624 Y25.255 E10.85838
G1 X208.645 Y25.293 E10.86076
G1 X208.959 Y25.88 E10.8973
G1 X209.114 Y26.214 E10.9175
G1 X209.405 Y26.949 E10.96089
G1 X209.421 Y26.991 E10.96335
G1 X209.788 Y27.958 E11.02011
G1 X209.806 Y28.006 E11.02293
G1 X210.052 Y28.686 E11.06261
G1 X210.155 Y29.03 E11.08232
G1 X210.323 Y29.73 E11.12182
G1 X210.335 Y29.781 E11.1247
G1 X210.581 Y30.886 E11.18683
G1 X210.589 Y30.923 E11.1889
G1 X210.726 Y31.574 E11.22541
G1 X210.782 Y31.944 E11.24595
G1 X210.853 Y32.721 E11.28877
G1 X210.856 Y32.766 E11.29124
G1 X210.94 Y33.854 E11.35113
G1 X210.944 Y33.903 E11.35383
G1 X210.986 Y34.582 E11.39116
G1 X210.99 Y34.674 E11.39621
G1 X210.997 Y34.884 E11.40775
G1 X210.999 Y34.958 E11.41181
G1 X211.002 Y35.252 E11.42794
G1 X211.002 Y35.285 E11.42975
G1 X211.01 Y188.988 E19.86486
G1 X211.01 Y194.204 E20.15111
G1 X211.001 Y194.931 E20.19101
G1 X210.955 Y195.436 E20.21883
G1 X210.83 Y195.927 E20.24664
G1 X210.629 Y196.393 E20.27449
G1 X210.358 Y196.822 E20.30234
G1 X210.023 Y197.202 E20.33014
G1 X209.632 Y197.526 E20.35801
G1 X209.195 Y197.784 E20.38586
G1 X208.724 Y197.97 E20.41365
G1 X208.229 Y198.08 E20.44147
G1 X207.871 Y198.11 E20.46119
G1 X207.55 Y198.119 E20.47881
G1 X207.46 Y198.12 E20.48375
G1 X173.409 Y198.12 E22.35245
G1 X170.612 Y198.16 E22.50596
G1 X167.897 Y198.275 E22.65509
G1 X165.146 Y198.47 E22.80644
G1 X162.451 Y198.737 E22.95506
G1 X159.722 Y199.086 E23.10605
G1 X157.028 Y199.51 E23.25571
G1 X154.314 Y200.014 E23.4072
G1 X151.641 Y200.589 E23.55725
G1 X149.027 Y201.23 E23.70495
G1 X146.357 Y201.964 E23.85692
G1 X143.725 Y202.77 E24.00798
G1 X141.142 Y203.642 E24.15759
G1 X138.577 Y204.588 E24.30763
G1 X136.021 Y205.614 E24.45878
G1 X133.555 Y206.687 E24.60637
G1 X131.011 Y207.88 E24.76057
G1 X128.612 Y209.087 E24.90795
G1 X126.18 Y210.401 E25.05965
G1 X123.842 Y211.749 E25.20776
G1 X121.486 Y213.199 E25.35958
G1 X119.196 Y214.698 E25.50978
G1 X117.442 Y215.911 E25.62681
G1 X117.205 Y216.06 E25.64218
G1 X116.582 Y216.415 E25.68153
G1 X116.504 Y216.458 E25.68642
G1 X115.972 Y216.742 E25.71951
G1 X115.932 Y216.763 E25.72199
G1 X115.296 Y217.091 E25.76126
G1 X114.802 Y217.296 E25.79061
G1 X114.168 Y217.499 E25.82715
G1 X114.122 Y217.513 E25.82979
G1 X113.559 Y217.684 E25.86208
G1 X113.511 Y217.698 E25.86482
G1 X112.838 Y217.891 E25.90324
G1 X112.322 Y217.994 E25.93212
G1 X111.694 Y218.067 E25.96682
G1 X111.639 Y218.073 E25.96985
G1 X110.982 Y218.138 E26.00608
G1 X110.936 Y218.143 E26.00862
G1 X110.296 Y218.197 E26.04387
G1 X109.768 Y218.198 E26.07285
G1 X109.018 Y218.138 E26.11414
G1 X108.96 Y218.133 E26.11733
G1 X108.441 Y218.082 E26.14595
G1 X108.394 Y218.077 E26.14855
G1 X107.705 Y217.999 E26.1866
G1 X107.192 Y217.898 E26.21529
G1 X106.526 Y217.71 E26.25327
G1 X106.464 Y217.692 E26.25681
G1 X105.905 Y217.522 E26.28888
G1 X105.867 Y217.51 E26.29107
G1 X105.206 Y217.3 E26.32913
G1 X104.708 Y217.094 E26.3587
G1 X104.152 Y216.808 E26.39302
G1 X104.106 Y216.784 E26.39586
G1 X103.562 Y216.493 E26.42972
G1 X103.523 Y216.472 E26.43215
G1 X102.901 Y216.128 E26.47116
G1 X102.635 Y215.964 E26.48831
G1 X100.441 Y214.457 E26.63438
G1 X98.153 Y212.972 E26.78407
G1 X95.816 Y211.548 E26.93426
G1 X93.434 Y210.188 E27.08479
G1 X91.032 Y208.904 E27.23426
G1 X88.563 Y207.674 E27.38564
G1 X86.089 Y206.527 E27.53529
G1 X83.587 Y205.452 E27.68474
G1 X81.004 Y204.427 E27.83724
G1 X78.454 Y203.5 E27.98615
G1 X75.876 Y202.643 E28.13524
G1 X73.237 Y201.848 E28.28649
G1 X70.617 Y201.139 E28.43545
G1 X67.916 Y200.489 E28.58791
G1 X65.262 Y199.928 E28.73678
G1 X62.545 Y199.437 E28.8883
G1 X59.88 Y199.031 E29.03624
G1 X57.147 Y198.693 E29.18737
G1 X54.41 Y198.433 E29.33825
G1 X51.695 Y198.253 E29.48757
G1 X48.947 Y198.148 E29.63849
G1 X46.596 Y198.12 E29.76752
G1 X12.871 Y198.12 E31.61832
G1 X12.173 Y198.11 E31.65663
G1 X11.668 Y198.062 E31.68447
G1 X11.177 Y197.937 E31.71227
G1 X10.711 Y197.735 E31.74015
G1 X10.283 Y197.463 E31.76798
G1 X9.903 Y197.127 E31.79581
G1 X9.581 Y196.736 E31.82361
G1 X9.324 Y196.299 E31.85143
G1 X9.138 Y195.827 E31.87928
G1 X9.029 Y195.331 E31.90715
G1 X9 Y194.977 E31.92664
G1 X8.991 Y194.645 E31.94486
G1 X8.99 Y194.558 E31.94964
G1 X8.99 Y35.531 E40.67692
G1 X9 Y34.835 E40.71512
G1 X9.003 Y34.744 E40.72011
G1 X9.018 Y34.391 E40.7395
G1 X9.023 Y34.299 E40.74456
G1 X9.124 Y32.88 E40.82263
G1 X9.128 Y32.836 E40.82506
G1 X9.183 Y32.189 E40.86069
G1 X9.229 Y31.853 E40.8793
G1 X9.345 Y31.251 E40.91295
G1 X9.357 Y31.194 E40.91614
G1 X9.608 Y30.006 E40.98278
G1 X9.618 Y29.958 E40.98547
G1 X9.779 Y29.25 E41.02532
G1 X9.882 Y28.894 E41.04565
G1 X10.113 Y28.238 E41.08382
G1 X10.127 Y28.2 E41.08604
G1 X10.527 Y27.109 E41.14982
G1 X10.544 Y27.064 E41.15246
G1 X10.781 Y26.446 E41.18878
G1 X10.932 Y26.111 E41.20895
G1 X11.287 Y25.43 E41.25109
G1 X11.307 Y25.392 E41.25345
G1 X11.835 Y24.411 E41.31459
G1 X11.86 Y24.365 E41.31746
G1 X12.176 Y23.8 E41.35299
G1 X12.367 Y23.498 E41.3726
G1 X12.817 Y22.869 E41.41504
G1 X12.85 Y22.825 E41.41806
G1 X13.496 Y21.954 E41.47757
G1 X13.521 Y21.92 E41.47989
G1 X13.941 Y21.369 E41.51791
G1 X14.182 Y21.088 E41.53822
G1 X14.669 Y20.582 E41.57676
G1 X14.701 Y20.55 E41.57925
G1 X15.483 Y19.76 E41.64025
G1 X15.514 Y19.728 E41.6427
G1 X16.025 Y19.226 E41.68201
G1 X16.299 Y18.986 E41.702
G1 F4200 E33.702
G1 F600 Z1.3
;MESH:TOP2_3_A.stl
G0 F6000 X15.69 Y60.959 Z1.3
;TYPE:WALL-INNER
G1 F600 Z0.3
G1 F4200 E41.702
G1 F900 X15.937 Y61.626 E41.74103
G1 X16.334 Y62.214 E41.77997
G1 X16.862 Y62.69 E41.81898
G1 X17.489 Y63.027 E41.85804
G1 X18.177 Y63.202 E41.897
G1 X18.888 Y63.21 E41.93602
G1 X19.58 Y63.047 E41.97504
G1 X20.213 Y62.721 E42.01412
G1 X20.749 Y62.255 E42.05309
G1 X21.156 Y61.675 E42.09198
G1 X21.416 Y61.012 E42.13106
G1 X21.508 Y60.307 E42.17008
G1 X21.43 Y59.601 E42.20906
G1 X21.183 Y58.934 E42.24809
G1 X20.786 Y58.346 E42.28703
G1 X20.258 Y57.87 E42.32604
G1 X19.631 Y57.533 E42.36511
G1 X18.943 Y57.358 E42.40406
G1 X18.232 Y57.35 E42.44309
G1 X17.54 Y57.513 E42.4821
G1 X16.907 Y57.839 E42.52118
G1 X16.371 Y58.305 E42.56015
G1 X15.964 Y58.885 E42.59904
G1 X15.704 Y59.548 E42.63812
G1 X15.612 Y60.253 E42.67714
G1 X15.69 Y60.959 E42.71612
G0 F6000 X15.862 Y59.586
G0 X16.491 Y58.414
G0 X60.14 Y22.859
G1 F900 X60.387 Y23.526 E42.75515
G1 X60.784 Y24.114 E42.79409
G1 X61.312 Y24.59 E42.8331
G1 X61.939 Y24.927 E42.87217
G1 X62.627 Y25.102 E42.91113
G1 X63.338 Y25.11 E42.95015
G1 X64.03 Y24.947 E42.98916
G1 X64.663 Y24.621 E43.02824
G1 X65.199 Y24.155 E43.06722
G1 X65.606 Y23.575 E43.1061
G1 X65.866 Y22.912 E43.14518
G1 X65.958 Y22.207 E43.1842
G1 X65.88 Y21.501 E43.22318
G1 X65.633 Y20.834 E43.26222
G1 X65.236 Y20.246 E43.30115
G1 X64.708 Y19.77 E43.34016
G1 X64.081 Y19.433 E43.37923
G1 X63.393 Y19.258 E43.41819
G1 X62.682 Y19.25 E43.45721
G1 X61.99 Y19.413 E43.49623
G1 X61.357 Y19.739 E43.5353
G1 X60.821 Y20.205 E43.57428
G1 X60.414 Y20.785 E43.61316
G1 X60.154 Y21.448 E43.65225
G1 X60.062 Y22.153 E43.69126
G1 X60.14 Y22.859 E43.73024
G0 F6000 X60.908 Y24.009
G0 X61.995 Y24.775
G0 X154.12 Y22.859
G1 F900 X154.367 Y23.526 E43.76928
G1 X154.764 Y24.114 E43.80821
G1 X155.292 Y24.59 E43.84723
G1 X155.919 Y24.927 E43.88629
G1 X156.607 Y25.102 E43.92525
G1 X157.318 Y25.11 E43.96427
G1 X158.01 Y24.947 E44.00329
G1 X158.643 Y24.621 E44.04236
G1 X159.179 Y24.155 E44.08134
G1 X159.586 Y23.575 E44.12022
G1 X159.846 Y22.912 E44.15931
G1 X159.938 Y22.207 E44.19832
G1 X159.86 Y21.501 E44.23731
G1 X159.613 Y20.834 E44.27634
G1 X159.216 Y20.246 E44.31527
G1 X158.688 Y19.77 E44.35429
G1 X158.061 Y19.433 E44.39335
G1 X157.373 Y19.258 E44.43231
G1 X156.662 Y19.25 E44.47133
G1 X155.97 Y19.413 E44.51035
G1 X155.337 Y19.739 E44.54942
G1 X154.801 Y20.205 E44.5884
G1 X154.394 Y20.785 E44.62729
G1 X154.134 Y21.448 E44.66637
G1 X154.042 Y22.153 E44.70539
G1 X154.12 Y22.859 E44.74437
G0 F6000 X154.888 Y24.009
G0 X198.57 Y60.959
G1 F900 X198.817 Y61.626 E44.7834
G1 X199.214 Y62.214 E44.82234
G1 X199.742 Y62.69 E44.86135
G1 X200.369 Y63.027 E44.90041
G1 X201.057 Y63.202 E44.93937
G1 X201.768 Y63.21 E44.97839
G1 X202.46 Y63.047 E45.01741
G1 X203.093 Y62.721 E45.05648
G1 X203.629 Y62.255 E45.09546
G1 X204.036 Y61.675 E45.13435
G1 X204.296 Y61.012 E45.17343
G1 X204.388 Y60.307 E45.21245
G1 X204.31 Y59.601 E45.25143
G1 X204.063 Y58.934 E45.29046
G1 X203.666 Y58.346 E45.3294
G1 X203.138 Y57.87 E45.36841
G1 X202.511 Y57.533 E45.40747
G1 X201.823 Y57.358 E45.44643
G1 X201.112 Y57.35 E45.48546
G1 X200.42 Y57.513 E45.52447
G1 X199.787 Y57.839 E45.56355
G1 X199.251 Y58.305 E45.60252
G1 X198.844 Y58.885 E45.64141
G1 X198.584 Y59.548 E45.68049
G1 X198.492 Y60.253 E45.71951
G1 X198.57 Y60.959 E45.75849
G0 F6000 X161.46 Y148.52
G1 F900 X160.221 Y148.52 E45.82649
G1 X160.068 Y148.52 E45.83488
G1 X159.753 Y148.52 E45.85217
G1 X160.068 Y148.241 E45.86233
G1 X160.155 Y148.116 E45.86933
G1 X160.399 Y147.762 E45.89292
G1 X160.604 Y147.218 E45.92482
G1 X160.675 Y146.64 E45.95678
G1 X160.604 Y146.062 E45.98874
G1 X160.399 Y145.518 E46.02064
G1 X160.068 Y145.039 E46.0526
G1 X159.632 Y144.653 E46.08455
G1 X159.117 Y144.383 E46.11647
G1 X158.551 Y144.243 E46.14846
G1 X157.995 Y144.243 E46.17898
G1 X157.407 Y144.38 E46.21211
G1 X156.888 Y144.653 E46.24429
G1 X156.757 Y144.769 E46.2539
G1 X156.452 Y145.039 E46.27625
G1 X156.38 Y145.143 E46.28319
G1 X156.38 Y145.039 E46.28336
G1 X156.38 Y144.631 E46.29722
G1 X156.38 Y143.44 E46.36258
G1 X63.62 Y143.44 E51.45318
G1 X63.62 Y144.631 E51.51854
G1 X63.62 Y145.039 E51.54093
G1 X63.62 Y145.143 E51.54664
G1 X63.548 Y145.039 E51.54802
G1 X63.243 Y144.769 E51.56184
G1 X63.112 Y144.653 E51.57144
G1 X62.597 Y144.383 E51.60335
G1 X62.031 Y144.243 E51.63535
G1 X61.475 Y144.243 E51.66586
G1 X60.887 Y144.38 E51.69899
G1 X60.368 Y144.653 E51.73118
G1 X59.932 Y145.039 E51.76313
G1 X59.601 Y145.518 E51.79509
G1 X59.396 Y146.062 E51.82699
G1 X59.325 Y146.64 E51.85895
G1 X59.396 Y147.218 E51.89091
G1 X59.601 Y147.762 E51.92281
G1 X59.845 Y148.116 E51.94641
G1 X59.932 Y148.241 E51.95476
G1 X60.247 Y148.52 E51.97786
G1 X59.932 Y148.52 E51.98223
G1 X59.779 Y148.52 E51.98927
G1 X58.54 Y148.52 E52.05727
G1 X58.54 Y194.24 E54.56635
G1 X12.87 Y194.24 E57.07268
G1 X12.87 Y34.897 E65.8173
G1 X13.038 Y32.534 E65.94731
G1 X13.543 Y30.154 E66.08083
G1 X14.389 Y27.851 E66.21547
G1 X15.543 Y25.709 E66.349
G1 X17.003 Y23.739 E66.48356
G1 X18.714 Y22.01 E66.61706
G1 X20.662 Y20.534 E66.75118
G1 X22.801 Y19.353 E66.88527
G1 X25.081 Y18.488 E67.0191
G1 X27.465 Y17.956 E67.15315
G1 X29.921 Y17.768 E67.28833
G1 X184.103 Y17.76 E75.74972
G1 X189.991 Y17.76 E76.07285
G1 X192.356 Y17.928 E76.20296
G1 X194.736 Y18.433 E76.33648
G1 X197.039 Y19.279 E76.47113
G1 X199.181 Y20.433 E76.60465
G1 X201.151 Y21.893 E76.73922
G1 X202.88 Y23.604 E76.87271
G1 X204.356 Y25.552 E77.00684
G1 X205.537 Y27.691 E77.14093
G1 X206.402 Y29.971 E77.27476
G1 X206.934 Y32.355 E77.40881
G1 X207.122 Y34.807 E77.54376
G1 X207.13 Y188.993 E86.00537
G1 X207.13 Y194.24 E86.29332
G1 X161.46 Y194.24 E88.79966
G1 X161.46 Y148.52 E91.30874
G0 F6000 X158.018 Y148.636
G0 X157.074 Y148.514
G0 X156.452 Y148.241
G1 F900 X156.55 Y148.327 E91.31589
G1 X156.767 Y148.52 E91.33183
G1 X156.452 Y148.52 E91.33742
G1 X156.38 Y148.52 E91.33804
G1 X156.38 Y148.241 E91.34687
G1 X156.38 Y148.137 E91.34883
G1 X156.452 Y148.241 E91.35021
G0 F6000 X157.267 Y148.698
G0 X161.288 Y148.692
G0 X173.17 Y182.879
G1 F900 X173.417 Y183.546 E91.38924
G1 X173.814 Y184.134 E91.42818
G1 X174.342 Y184.61 E91.46719
G1 X174.969 Y184.947 E91.50626
G1 X175.657 Y185.122 E91.54522
G1 X176.368 Y185.13 E91.58424
G1 X177.06 Y184.967 E91.62325
G1 X177.693 Y184.641 E91.66233
G1 X178.229 Y184.175 E91.70131
G1 X178.636 Y183.595 E91.74019
G1 X178.896 Y182.932 E91.77927
G1 X178.988 Y182.227 E91.81829
G1 X178.91 Y181.521 E91.85727
G1 X178.663 Y180.854 E91.8963
G1 X178.266 Y180.266 E91.93524
G1 X177.738 Y179.79 E91.97425
G1 X177.111 Y179.453 E92.01332
G1 X176.423 Y179.278 E92.05228
G1 X175.712 Y179.27 E92.0913
G1 X175.02 Y179.433 E92.13031
G1 X174.387 Y179.759 E92.16939
G1 X173.851 Y180.225 E92.20837
G1 X173.444 Y180.805 E92.24725
G1 X173.184 Y181.468 E92.28633
G1 X173.092 Y182.173 E92.32535
G1 X173.17 Y182.879 E92.36433
G0 F6000 X173.342 Y181.506
G0 X173.971 Y180.334
G0 X174.816 Y179.719
G0 X198.57 Y170.179
G1 F900 X198.817 Y170.846 E92.40337
G1 X199.214 Y171.434 E92.4423
G1 X199.742 Y171.91 E92.48131
G1 X200.369 Y172.247 E92.52038
G1 X201.057 Y172.422 E92.55934
G1 X201.768 Y172.43 E92.59836
G1 X202.46 Y172.267 E92.63738
G1 X203.093 Y171.941 E92.67645
G1 X203.629 Y171.475 E92.71543
G1 X204.036 Y170.895 E92.75431
G1 X204.296 Y170.232 E92.7934
G1 X204.388 Y169.527 E92.83241
G1 X204.31 Y168.821 E92.87139
